src/assets/logos/github.svg

<svg width="50" height="50" viewBox="0 0 50 50" fill="none" xmlns="http://www.w3.org/2000/svg">
<path d="M25.0001 0C11.1947 0 0 11.476 0 25.6329C0 36.9583 7.16328 46.5665 17.0967 49.956C18.346 50.1932 18.8048 49.3999 18.8048 48.7228C18.8048 48.1117 18.7815 46.0923 18.7709 43.9505C11.8157 45.5011 10.3481 40.9261 10.3481 40.9261C9.21085 37.9633 7.57228 37.1756 7.57228 37.1756C5.30413 35.5846 7.74326 35.6172 7.74326 35.6172C10.2538 35.7981 11.5757 38.2588 11.5757 38.2588C13.8054 42.1776 17.4241 41.0445 18.8507 40.3898C19.075 38.7328 19.723 37.6022 20.4379 36.9621C14.8852 36.3138 9.04772 34.1159 9.04772 24.2942C9.04772 21.4958 10.0244 19.209 11.6237 17.414C11.3641 16.7683 10.5085 14.1612 11.8659 10.6305C11.8659 10.6305 13.9652 9.94154 18.7427 13.258C20.7367 12.6899 22.8755 12.4052 25.0001 12.3956C27.1247 12.4052 29.265 12.6899 31.263 13.258C36.0348 9.94154 38.1312 10.6305 38.1312 10.6305C39.4919 14.1612 38.6359 16.7683 38.3763 17.414C39.9792 19.209 40.9491 21.4956 40.9491 24.2942C40.9491 34.1392 35.1007 36.3072 29.5339 36.9416C30.4305 37.7371 31.2295 39.2971 31.2295 41.6884C31.2295 45.1181 31.2005 47.8785 31.2005 48.7228C31.2005 49.4049 31.6504 50.2043 32.9179 49.9526C42.8457 46.5593 50 36.9545 50 25.6329C50 11.476 38.8069 0 25.0001 0Z" fill="#161614"/>
<path d="M9.36344 36.5147C9.30854 36.642 9.11286 36.6802 8.93503 36.5929C8.75366 36.5093 8.6517 36.3356 8.71052 36.2078C8.76444 36.0767 8.96012 36.0401 9.1411 36.1282C9.32286 36.2116 9.42638 36.3869 9.36344 36.5147ZM10.5932 37.6397C10.474 37.7531 10.2409 37.7004 10.0826 37.5213C9.91911 37.3426 9.88852 37.1038 10.0095 36.9886C10.1324 36.8754 10.3585 36.9283 10.5224 37.1072C10.6859 37.2879 10.7177 37.5253 10.593 37.6399L10.5932 37.6397ZM11.4369 39.0791C11.2836 39.1883 11.033 39.086 10.8783 38.858C10.7252 38.6302 10.7252 38.3568 10.8816 38.2473C11.0369 38.1377 11.2836 38.2362 11.4404 38.4624C11.5934 38.6942 11.5934 38.9676 11.4367 39.0793L11.4369 39.0791ZM12.8635 40.7463C12.7265 40.9011 12.4347 40.8597 12.221 40.6482C12.0026 40.4415 11.9416 40.1482 12.079 39.9932C12.2177 39.838 12.5112 39.8817 12.7265 40.0913C12.9435 40.2976 13.0098 40.5931 12.8637 40.7463H12.8635ZM14.7074 41.3092C14.6472 41.5098 14.366 41.6011 14.0829 41.5159C13.8002 41.428 13.6151 41.1928 13.6721 40.99C13.7309 40.7879 14.0133 40.6928 14.2986 40.7841C14.5809 40.8716 14.7664 41.105 14.7076 41.3092H14.7074ZM16.8061 41.5478C16.8132 41.7593 16.573 41.9346 16.2758 41.9384C15.9768 41.9451 15.735 41.774 15.7319 41.5661C15.7319 41.3526 15.9666 41.1789 16.2654 41.1739C16.5626 41.1679 16.8061 41.3378 16.8061 41.5478ZM18.8676 41.4668C18.9033 41.6731 18.6967 41.885 18.4016 41.9413C18.1114 41.9955 17.8428 41.8683 17.8057 41.6638C17.7696 41.4523 17.9802 41.2407 18.2698 41.1858C18.5655 41.1331 18.83 41.2571 18.8676 41.4668Z" fill="#161614"/>
</svg>

<svg width="50" height="50" fill="none" xmlns="http://www.w3.org/2000/svg"><path d="M25 0C11.195 0 0 11.476 0 25.633c0 11.325 7.163 20.933 17.097 24.323 1.249.237 1.708-.556 1.708-1.233 0-.611-.023-2.63-.034-4.773-6.955 1.551-8.423-3.024-8.423-3.024-1.137-2.963-2.776-3.75-2.776-3.75-2.268-1.591.171-1.559.171-1.559 2.51.181 3.833 2.642 3.833 2.642 2.23 3.919 5.848 2.785 7.275 2.13.224-1.656.872-2.787 1.587-3.427-5.553-.648-11.39-2.846-11.39-12.668 0-2.798.976-5.085 2.576-6.88-.26-.646-1.116-3.253.242-6.784 0 0 2.1-.688 6.877 2.628 1.994-.568 4.133-.853 6.257-.862 2.125.01 4.265.294 6.263.862 4.772-3.316 6.868-2.627 6.868-2.627 1.36 3.53.505 6.137.245 6.783 1.603 1.795 2.573 4.082 2.573 6.88 0 9.845-5.848 12.013-11.415 12.648.896.795 1.696 2.355 1.696 4.746 0 3.43-.03 6.19-.03 7.035 0 .682.45 1.481 1.718 1.23C42.846 46.559 50 36.955 50 25.633 50 11.476 38.807 0 25 0z" fill="#161614"/><path d="M9.363 36.515c-.054.127-.25.165-.428.078-.181-.084-.283-.257-.224-.385.053-.131.25-.168.43-.08.182.084.285.259.222.387zm1.23 1.125c-.119.113-.352.06-.51-.119-.164-.178-.194-.417-.074-.532.123-.114.35-.06.513.118.164.18.196.418.071.533zm.844 1.44c-.153.108-.404.006-.559-.222-.153-.228-.153-.501.004-.61.155-.11.402-.012.558.214.153.232.153.506-.003.617zm1.427 1.666c-.138.155-.43.114-.643-.098-.218-.207-.28-.5-.142-.655.139-.155.432-.111.647.098.217.207.284.502.138.655zm1.843.563c-.06.2-.341.292-.624.207-.283-.088-.468-.323-.41-.526.058-.202.34-.297.626-.206.282.088.467.321.409.525zm2.1.239c.006.211-.234.387-.531.39-.3.007-.541-.164-.544-.372 0-.213.235-.387.533-.392.298-.006.541.164.541.374zm2.06-.081c.036.206-.17.418-.465.474-.29.054-.56-.073-.596-.277-.036-.212.174-.423.464-.478.296-.053.56.071.598.28z" fill="#161614"/></svg>
